X: 19408
T: Jackie Daly's
R: polka
M: 2/4
K: Dmajor
D2DE|FE FA|D2DB|AFE2|
D2DE|FE FA|B>c dB|AFE2:|
FA AB/c/|dc BA|FA AB/c/|dFE2|
FA AB/c/|dc BA|Be e>d|cBA2:|

